X:1
T:Title
%%score { 1 | 2 }
L:1/8
M:3/4
K:F
V:1 treble nm="Grand Piano"
V:2 bass 
V:1
 z2 z2 z[Q:1/4=116] A | c>A c3 d | c>A c3 d | c>A A3 F |[M:5/8] [EG]>F F3 |[M:1/8] A | %6
[M:3/4] c>A c3 d | c>A c3 d | c>A A3 F |[M:5/8] [EG]>F F3 |[M:3/2] F2 A2 F2 A6 | %11
 F2 [EG]2 [FA]2 [EG]6 | F2 A2 c2 c6 |[M:3/4] F2 [FA]2 [EG]2 | F6 | F2 A2 F2 | %16
[M:6/4] A6 F2 [EG]2 [FA]2 | [EG]6 F2 A2 c2 | c6 F2 [FA]2 [EG]2 |[M:3/4] [A,F]6 |] %20
V:2
 z2 z2 z [F,CF] | [F,A,F]>[F,CF] [F,A,F]3 [F,B,F] | [F,A,F]>[F,CF] [F,A,F]3 [F,B,F] | %3
 [F,A,F]>[F,CF] [F,CF]3 [F,A,] |[M:5/8] [C,B,]>[F,A,C] [F,A,C]3 |[M:1/8] [F,CF] | %6
[M:3/4] [F,A,F]>[F,CF] [F,A,F]3 [F,B,F] | [F,A,F]>[F,CF] [F,A,F]3 [F,B,F] | %8
 [F,A,F]>[F,CF] [F,CF]3 [F,A,] |[M:5/8] [C,B,]>[F,A,C] [F,A,C]3 | %10
[M:3/2] [F,A,C]2 [F,CF]2 [F,A,C]2 [F,CF]6 | [F,A,C]2 [C,C]2 [C,C]2 [C,C]6 | %12
 [F,A,C]2 [F,CF]2 [F,A,F]2 [F,A,F]6 |[M:3/4] [D,A,]2 [C,C]2 [C,B,]2 | [F,A,]6 | %15
 [F,A,C]2 [F,CF]2 [F,A,C]2 |[M:6/4] [F,CF]6 [F,A,C]2 [C,C]2 [C,C]2 | %17
 [C,C]6 [F,A,C]2 [F,CF]2 [F,A,F]2 | [F,A,F]6 [D,A,]2 [C,C]2 [C,B,]2 |[M:3/4] [F,,F,]6 |] %20

